lib/brands/icons/nativescript.svg

<svg xmlns="http://www.w3.org/2000/svg" fill="none" aria-hidden="true" viewBox="0 0 48 48"><g id="nativescript-Icon"><path id="Vector" fill="#3C5AFD" d="M39.363 8.63696C41.0562 10.3301 41.9352 12.4511 41.9994 14.9998V33.0002C41.9352 35.5483 41.0562 37.6699 39.363 39.363C37.6699 41.0562 35.5483 41.9352 32.9995 42H14.9998C12.4511 41.9352 10.3301 41.0562 8.63696 39.363C6.94378 37.6699 6.0648 35.5483 6 33.0002V14.9998C6.0648 12.4511 6.94378 10.3301 8.63696 8.63696C10.3301 6.94378 12.4511 6.0648 14.9998 6H32.9995C35.5483 6.0648 37.6699 6.94378 39.363 8.63696ZM36.8803 23.1213C36.3145 22.5585 36.0205 21.8523 35.9971 21.0027V14.9998C35.9791 14.1503 35.6875 13.4429 35.1223 12.8777C34.5571 12.3119 33.8491 12.0209 32.9995 12.0029H30.0026V26.9973L17.9974 12.0029H14.9998C14.1503 12.0209 13.4429 12.3119 12.8777 12.8777C12.3119 13.4429 12.0209 14.1503 12.0029 14.9998V21.0027C11.9795 21.8523 11.6855 22.5585 11.1197 23.1213C10.5545 23.6835 9.84714 23.9763 8.99755 23.9997C9.84714 24.0237 10.5545 24.3165 11.1197 24.8787C11.6855 25.4415 11.9795 26.1477 12.0029 26.9973V33.0002C12.0209 33.8491 12.3119 34.5571 12.8777 35.1223C13.4429 35.6875 14.1503 35.9791 14.9998 35.9971H17.9974V21.0027L30.0026 35.9971H32.9995C33.8491 35.9791 34.5571 35.6875 35.1223 35.1223C35.6875 34.5571 35.9791 33.8491 35.9971 33.0002V26.9973C36.0205 26.1477 36.3145 25.4415 36.8803 24.8787C37.4455 24.3165 38.1529 24.0237 39.0024 23.9997C38.1529 23.9763 37.4455 23.6835 36.8803 23.1213Z"/></g></svg>

<svg xmlns="http://www.w3.org/2000/svg" fill="none" aria-hidden="true" viewBox="0 0 48 48"><path fill="#3C5AFD" d="M39.363 8.637c1.693 1.693 2.572 3.814 2.636 6.363v18c-.064 2.548-.943 4.67-2.636 6.363-1.693 1.693-3.815 2.572-6.364 2.637H15c-2.548-.065-4.669-.944-6.362-2.637C6.944 37.67 6.065 35.548 6 33V15c.065-2.549.944-4.67 2.637-6.363C10.33 6.944 12.451 6.065 15 6h18c2.548.065 4.67.944 6.363 2.637ZM36.88 23.121c-.566-.563-.86-1.269-.883-2.118V15c-.018-.85-.31-1.557-.875-2.122-.565-.566-1.273-.857-2.123-.875h-2.996v14.994L17.997 12.003H15c-.85.018-1.557.309-2.122.875-.566.565-.857 1.272-.875 2.122v6.003c-.024.85-.318 1.555-.883 2.118s-1.273.855-2.122.879c.85.024 1.557.317 2.122.879.566.563.86 1.269.883 2.118V33c.018.85.309 1.557.875 2.122.565.566 1.272.857 2.122.875h2.997V21.003l12.006 14.994h2.996c.85-.018 1.558-.31 2.123-.875.566-.565.857-1.273.875-2.122v-6.003c.023-.85.318-1.555.883-2.118.566-.563 1.273-.855 2.122-.88-.85-.023-1.556-.316-2.122-.878Z"/></svg>
